!!!COM:	Ockeghem, Johannes
!!!CDT:	~1425-1497/02/06
!!!OPR:	Requiem
!!!ONM:	3
!!!OTL:	Gradual Si ambulem
!!!AGN:	Mass; Requiem; Gradual
!!!SCT:	Ock1013c
!!!SCA:	Ock1013c
!!!voices:	5
!!!voices-OPR:	3-4
**kern	**kern	**kern	**kern	**kern
*staff5	*staff4	*staff3	*staff2	*staff1
*Ivox	*Ivox	*Ivox	*Ivox	*Ivox
*I"Contrabassus	*I"Tenor	*I"Contratenor	*I"Contraltus	*I"Discantus
*I'C	*I'T	*I'Ct	*I'C	*I'D
*>[A,B]	*>[A,B]	*>[A,B]	*>[A,B]	*>[A,B]
*>A	*>A	*>A	*>A	*>A
*clefF4	*clefGv2	*clefGv2	*clefGv2	*clefG2
*k[]	*k[]	*k[]	*k[]	*k[]
*M2/1	*M2/1	*M2/1	*M2/1	*M2/1
*met(C|)	*met(C|)	*met(C|)	*met(C|)	*met(C|)
!!section: in medio umbre mortis
!!!OMD: in medio umbre mortis
=1-	=1-	=1-	=1-	=1-
0r	1.A	[0D	0r	[0f
.	2B-i\	.	.	.
=2	=2	=2	=2	=2
0r	1.A	0D]	0r	0f_
.	2G/	.	.	.
=3	=3	=3	=3	=3
0r	1A	1c	0r	0f]
.	1D	2.d\	.	.
.	.	4B\	.	.
=4	=4	=4	=4	=4
0r	1A	1c	0r	1.f
.	1B-i	1d	.	.
.	.	.	.	2g/
=5	=5	=5	=5	=5
0r	1A	[0e	0r	1a
.	1G	.	.	[1b-i
=6	=6	=6	=6	=6
0r	0A	0e]	0r	2b-\]
.	.	.	.	2a/
.	.	.	.	[1a
=7	=7	=7	=7	=7
0r	0B-i	0d	0r	1a]
.	.	.	.	1g
=8	=8	=8	=8	=8
0r	[0A	1.c	0r	1.a
.	.	2d\	.	2g/
=9	=9	=9	=9	=9
0r	0A]	0e	0r	1a
.	.	.	.	[1cc
=10	=10	=10	=10	=10
0r	1F	0f	0r	1cc]
.	1G	.	.	1b-i
=11	=11	=11	=11	=11
0r	0A	1.F	0r	1.a
.	.	2E/	.	2g/
=12	=12	=12	=12	=12
0r	0B-i	0D	0r	1.f
.	.	.	.	4e/
.	.	.	.	4d/
=13	=13	=13	=13	=13
0r	[0c	[0C	0r	1.e
.	.	.	.	2f/
=14	=14	=14	=14	=14
0r	0c]	0C]	0r	1g
.	.	.	.	[1a
=15	=15	=15	=15	=15
0r	1A	1F	0r	1a]
.	1B	1E	.	[1g
=16	=16	=16	=16	=16
0r	0c	0C	0r	1g]
.	.	.	.	[1a
=17	=17	=17	=17	=17
0r	0F	0D	0r	2a/]
.	.	.	.	2f/
.	.	.	.	[1f
=18	=18	=18	=18	=18
0r	0G	0C	0r	1f]
.	.	.	.	1e
=19	=19	=19	=19	=19
0r	[0F	[0c	0r	0f
=20	=20	=20	=20	=20
0r	0F]	1c]	0r	0r
.	.	[1d	.	.
=21	=21	=21	=21	=21
0r	0r	1d]	0r	[0a
.	.	1c	.	.
=22	=22	=22	=22	=22
0r	[0F	1A	0r	1a]
.	.	[1d	.	1f
=23	=23	=23	=23	=23
0r	0F]	1d]	0r	0a
.	.	2c\	.	.
.	.	2d\	.	.
=24	=24	=24	=24	=24
0r	[0E	1e	0r	[0g
.	.	1B	.	.
=25	=25	=25	=25	=25
0r	0E]	0c	0r	0g]
=26	=26	=26	=26	=26
0r	0D	0d	0r	0f
=27	=27	=27	=27	=27
0r	1A	1r	0r	[0e
.	1B	1G	.	.
=28	=28	=28	=28	=28
0r	0c	2E/	0r	0e]
.	.	2F/	.	.
.	.	2G/	.	.
.	.	2A/	.	.
=29	=29	=29	=29	=29
0r	1.d	0D	0r	0f
.	2c\	.	.	.
=30	=30	=30	=30	=30
0r	1d	1F	0r	0d
.	1B	1G	.	.
=31	=31	=31	=31	=31
0r	1A	0D	0r	1.f
.	[1d	.	.	.
.	.	.	.	2g/
=32	=32	=32	=32	=32
0r	1d]	1.F	0r	0a
.	[1c	.	.	.
.	.	2G/	.	.
=33	=33	=33	=33	=33
0r	1c]	1A	0r	1f
.	1B	1B	.	[1g
=34	=34	=34	=34	=34
0r	0A	1.c	0r	1g]
.	.	.	.	1f#i
.	.	2A/	.	.
=35	=35	=35	=35	=35
0r	1.G	2B\	0r	0g
.	.	1e	.	.
.	2F/	[2d\	.	.
=36	=36	=36	=36	=36
0r	1E	2d\]	0r	0r
.	.	2c\	.	.
.	1D	2d\	.	.
.	.	[2f\	.	.
=37	=37	=37	=37	=37
0r	1A	2f\]	0r	0r
.	.	1e	.	.
.	[1A	.	.	.
.	.	[2c\	.	.
=38	=38	=38	=38	=38
0r	1A]	4c\]	0r	0r
.	.	4d\	.	.
.	.	2A/	.	.
.	1G	1B	.	.
=39	=39	=39	=39	=39
0r	1A	1c	0r	0r
.	1c	1A	.	.
=40	=40	=40	=40	=40
0r	1.B	0G	0r	0d
.	2G/	.	.	.
=41	=41	=41	=41	=41
0r	1c	1F	0r	1a
.	1d	1D	.	[1a
=42	=42	=42	=42	=42
0r	0A	0F	0r	1a]
.	.	.	.	1f
=43	=43	=43	=43	=43
0r	0B	0E	0r	0g
=44	=44	=44	=44	=44
0r	0A	0e	0r	[0a
=45	=45	=45	=45	=45
0r	1r	1.c	0r	1a]
.	1A	.	.	1cc
.	.	2d\	.	.
=46	=46	=46	=46	=46
0r	1G	1e	0r	1b
.	1F	[1f	.	[1cc
=47	=47	=47	=47	=47
0r	1.A	2f\]	0r	1cc]
.	.	2e\	.	.
.	.	1c	.	[1a
.	2B\	.	.	.
=48	=48	=48	=48	=48
0r	1c	1e	0r	1a]
.	1r	1d	.	[1f
=49	=49	=49	=49	=49
0r	1.F	1c	0r	1f]
.	.	[1f	.	[1a
.	2E/	.	.	.
=50	=50	=50	=50	=50
0r	1D	1f]	0r	2a/]
.	.	.	.	2b\
.	1C	1e	.	[1cc
=51	=51	=51	=51	=51
0r	0E	1.c	0r	2cc\]
.	.	.	.	2b\
.	.	.	.	1g
.	.	2B\	.	.
=52	=52	=52	=52	=52
0r	1D	1d	0r	1f
.	1C	1e	.	[1g
=53	=53	=53	=53	=53
0r	1r	1B	0r	0g]
.	1E	1c	.	.
=54	=54	=54	=54	=54
0r	1D	1d	0r	1f
.	1C	[1A	.	[1e
=55	=55	=55	=55	=55
0r	0D	1A]	0r	2e/]
.	.	.	.	2d/
.	.	1F	.	[1d
=56	=56	=56	=56	=56
0r	0E	0G	0r	1d]
.	.	.	.	1c
=57	=57	=57	=57	=57
0r	1.D	0A	0r	1d
.	.	.	.	1e
.	2C/	.	.	.
=58	=58	=58	=58	=58
0r	1D	0r	0r	1f
.	1E	.	.	1g
=59	=59	=59	=59	=59
0r	1F	1A	0r	0d
.	1G	1B-i	.	.
=60	=60	=60	=60	=60
0r	1r	1A	0r	1c
.	1D	1F	.	1B-i
=61	=61	=61	=61	=61
0r	1C	[0G	0r	1e-i
.	1BB-	.	.	[1d
=62	=62	=62	=62	=62
0r	0E-	0G]	0r	2d/]
.	.	.	.	2c/
.	.	.	.	[1c
=63	=63	=63	=63	=63
0r	0D	0F	0r	1c]
.	.	.	.	1B
=64	=64	=64	=64	=64
0r	0C	0G	0r	[0c
=65	=65	=65	=65	=65
0r	1r	1.A	0r	0c]
.	[1F	.	.	.
.	.	2G/	.	.
=66	=66	=66	=66	=66
0r	1F]	1A	0r	0r
.	1D	2B\	.	.
.	.	[2c\	.	.
=67	=67	=67	=67	=67
0r	0E	2c\]	0r	0r
.	.	2B\	.	.
.	.	1G	.	.
=68	=68	=68	=68	=68
0r	0F	1A	0r	0f
.	.	1D	.	.
=69	=69	=69	=69	=69
0r	0G	1r	0r	1d
.	.	1B	.	[1e
=70	=70	=70	=70	=70
0r	0A	0c	0r	1e]
.	.	.	.	[1f
=71	=71	=71	=71	=71
0r	0B-i	0d	0r	1f]
.	.	.	.	1g
=72	=72	=72	=72	=72
0r	[0A	1r	0r	1.a
.	.	[1e	.	.
.	.	.	.	2g/
=73	=73	=73	=73	=73
0r	0A]	0e_	0r	1a
.	.	.	.	[1cc
=74	=74	=74	=74	=74
0r	1.c	1e]	0r	2cc\]
.	.	.	.	2b\
.	.	[1E	.	[1g
.	2B\	.	.	.
=75	=75	=75	=75	=75
0r	1G	1E]	0r	1g]
.	1F	1D	.	1a
=76	=76	=76	=76	=76
0r	0G	0d	0r	1b-i
.	.	.	.	[1g
=77	=77	=77	=77	=77
0r	0A	0c	0r	2g/]
.	.	.	.	4f#i/
.	.	.	.	4e/
.	.	.	.	1f#i
=78	=78	=78	=78	=78
0r	1.G	1d	0r	[0g
.	.	[1G	.	.
.	2A/	.	.	.
=79	=79	=79	=79	=79
0r	1.B	2G/]	0r	0g]
.	.	2A/	.	.
.	.	[1B	.	.
.	2c\	.	.	.
=80	=80	=80	=80	=80
0r	1d	2B\]	0r	0r
.	.	2c\	.	.
.	[1G	1d	.	.
=81	=81	=81	=81	=81
0r	2G/]	2G/	0r	0d
.	2F/	2A/	.	.
.	1G	1B	.	.
=82	=82	=82	=82	=82
0r	2F/	0A	0r	1d
.	1D	.	.	.
.	.	.	.	[1d
.	2F/	.	.	.
=83	=83	=83	=83	=83
0r	2E/	0G	0r	2d/]
.	2D/	.	.	2B/
.	1E	.	.	1c#i
=84	=84	=84	=84	=84
0r	[0D	0A	0r	0d
=85	=85	=85	=85	=85
0r	1D]	1B	0r	0f
.	[1A	[1c	.	.
=86	=86	=86	=86	=86
0r	2A/]	2c\]	0r	1e
.	2G/	2B\	.	.
.	1A	1c	.	1f
=87	=87	=87	=87	=87
0r	1B-i	1d	0r	1g
.	1A	[1D	.	2a/
.	.	.	.	[2a/
=88	=88	=88	=88	=88
0r	1F	1D]	0r	2a/]
.	.	.	.	4g/
.	.	.	.	4f/
.	1G	2C/	.	1e
.	.	2E/	.	.
=89	=89	=89	=89	=89
0r	2A/	2D/	0r	1r
.	1A	2C/	.	.
.	.	1D	.	1f
.	4G/	.	.	.
.	4F/	.	.	.
=90	=90	=90	=90	=90
0r	1E	1C	0r	1g
.	2r	1D	.	2f/
.	[2F/	.	.	[2d/
=91	=91	=91	=91	=91
0r	2F/]	2A/	0r	2d/]
.	2G/	2B\	.	1e
.	1A	1c	.	.
.	.	.	.	2f/
=92	=92	=92	=92	=92
0r	2B-i\	2d\	0r	2g/
.	2A/	1D	.	2a/
.	2F/	.	.	4b-i\
.	.	.	.	4a/
.	2G/	2E/	.	4g/
.	.	.	.	4f/
=93	=93	=93	=93	=93
0r	1A	2C/	0r	2e/
.	.	2D/	.	1f
.	2.D/	2r	.	.
.	.	[2A/	.	[2d/
.	4E/	.	.	.
=94	=94	=94	=94	=94
0r	2F/	2A/]	0r	2d/]
.	2G/	2G/	.	4c/
.	.	.	.	4B/
.	2A/	2F/	.	2A/
.	2D/	[2A/	.	[2d/
=95	=95	=95	=95	=95
0r	1E	2A/]	0r	2d/]
.	.	2G/	.	2c#i/
.	1Dl	1Al	.	1dl
!!LO:LB:i:g=z
=96||	=96||	=96||	=96||	=96||
*>B	*>B	*>B	*>B	*>B
*clefF4	*clefGv2	*clefGv2	*clefGv2	*clefG2
*k[]	*k[]	*k[]	*k[]	*k[]
*M2/1	*M2/1	*M2/1	*M2/1	*M2/1
*met(C|)	*met(C|)	*met(C|)	*met(C|)	*met(C|)
!!section: Virga tua
!!!OMD: Virga tua
0r	0r	0r	0A	0a
=97	=97	=97	=97	=97
0r	0r	0r	1.B-	1.f
.	.	.	4A/	2g/
.	.	.	4G/	.
=98	=98	=98	=98	=98
0r	0r	0r	1F	0a
.	.	.	[1c	.
=99	=99	=99	=99	=99
0r	0r	0r	0c_	1g
.	.	.	.	[1e
=100	=100	=100	=100	=100
0r	0r	0r	1c]	1e]
.	.	.	1B	[1g
=101	=101	=101	=101	=101
0r	0r	0r	0G	2g/]
.	.	.	.	2f/
.	.	.	.	2e/
.	.	.	.	2d/
=102	=102	=102	=102	=102
0r	0r	0r	1A	1c
.	.	.	2G/	[1d
.	.	.	2F/	.
=103	=103	=103	=103	=103
0r	0r	0r	2E/	2d/]
.	.	.	2D/	2B/
.	.	.	1E	1c#i
=104	=104	=104	=104	=104
0r	0r	0r	0D	[0d
=105	=105	=105	=105	=105
0r	0r	0r	1r	0d]
.	.	.	[1D	.
=106	=106	=106	=106	=106
0r	0r	0r	1D]	0r
.	.	.	1C	.
=107	=107	=107	=107	=107
0r	0r	0r	1D	0d
.	.	.	[1F	.
=108	=108	=108	=108	=108
0r	0r	0r	2F/]	1.c
.	.	.	2G/	.
.	.	.	1A	.
.	.	.	.	2d/
=109	=109	=109	=109	=109
0r	0r	0r	1A	1.e
.	.	.	[1c	.
.	.	.	.	2f/
=110	=110	=110	=110	=110
0r	0r	0r	2c\]	1.g
.	.	.	2B\	.
.	.	.	1G	.
.	.	.	.	2e/
=111	=111	=111	=111	=111
0r	0r	0r	0A	2f/
.	.	.	.	2g/
.	.	.	.	2a/
.	.	.	.	4g/
.	.	.	.	4a/
=112	=112	=112	=112	=112
0r	0r	0r	1G	1b-i
.	.	.	1B-i	[1g
=113	=113	=113	=113	=113
0r	0r	0r	0A	2g/]
.	.	.	.	4f#i/
.	.	.	.	4e/
.	.	.	.	1f#i
=114	=114	=114	=114	=114
0r	0r	0r	[0G	0g
=115	=115	=115	=115	=115
0r	0r	0r	1G]	1.b-
.	.	.	[1B-	.
.	.	.	.	2a/
=116	=116	=116	=116	=116
0r	0r	0r	1B-]	2g/
.	.	.	.	2f/
.	.	.	1A	1f
=117	=117	=117	=117	=117
0r	0r	0r	0G	1r
.	.	.	.	1b-i
=118	=118	=118	=118	=118
0r	0r	0r	1.F	2a/
.	.	.	.	1cc
.	.	.	2G/	2b-i\
=119	=119	=119	=119	=119
0r	0r	0r	1A	2a/
.	.	.	.	2f/
.	.	.	1B-i	1g
=120	=120	=120	=120	=120
0r	0r	0r	1A	1a
.	.	.	1G	1b-i
=121	=121	=121	=121	=121
0r	0r	0r	0B-i	1g
.	.	.	.	1dd
=122	=122	=122	=122	=122
0r	0r	0r	1A	1cc
.	.	.	1G	[1b-i
=123	=123	=123	=123	=123
0r	0r	0r	0A	2b-\]
.	.	.	.	2a/
.	.	.	.	[1a
=124	=124	=124	=124	=124
0r	0r	0r	0B-i	1a]
.	.	.	.	1g
=125	=125	=125	=125	=125
0r	0r	0r	0A	[0a
=126	=126	=126	=126	=126
0r	0r	0r	1d	0a]
.	.	.	[1d	.
=127	=127	=127	=127	=127
0r	0r	0r	1d]	0r
.	.	.	1c	.
=128	=128	=128	=128	=128
0r	0r	0r	[0d	0d
=129	=129	=129	=129	=129
0r	0r	0r	1d]	1.a
.	.	.	[1f	.
.	.	.	.	2g/
=130	=130	=130	=130	=130
0r	0r	0r	1f]	1a
.	.	.	1e	[1cc
=131	=131	=131	=131	=131
0r	0r	0r	0d	1cc]
.	.	.	.	1b
=132	=132	=132	=132	=132
0r	0r	0r	[0c	1.cc
.	.	.	.	2a/
=133	=133	=133	=133	=133
0r	0r	0r	1c]	0a
.	.	.	[1d	.
=134	=134	=134	=134	=134
0r	0r	0r	1d]	1b
.	.	.	1c	[1cc
=135	=135	=135	=135	=135
0r	0r	0r	1.A	2cc\]
.	.	.	.	2b\
.	.	.	.	1a
.	.	.	2B\	.
=136	=136	=136	=136	=136
0r	0r	0r	1c	1g
.	.	.	1G	[1b-i
=137	=137	=137	=137	=137
0r	0r	0r	1.d	0b-_
.	.	.	2c\	.
=138	=138	=138	=138	=138
0r	0r	0r	1d	0b-_
.	.	.	1G	.
=139	=139	=139	=139	=139
0r	0r	0r	1d	1b-]
.	.	.	1c	1a
=140	=140	=140	=140	=140
0r	0r	0r	1A	1f
.	.	.	[1B-i	[1g
=141	=141	=141	=141	=141
0r	0r	0r	1B-]	1g]
.	.	.	[1A	[1a
=142	=142	=142	=142	=142
0r	0r	0r	0A_	1a]
.	.	.	.	1r
=143	=143	=143	=143	=143
0r	0r	0r	1A]	0a
.	.	.	1r	.
=144	=144	=144	=144	=144
0r	0r	0r	1r	2g/
.	.	.	.	1e
.	.	.	[1A	.
.	.	.	.	2f/
=145	=145	=145	=145	=145
0r	0r	0r	1A]	2e/
.	.	.	.	4d/
.	.	.	.	4c/
.	.	.	[1G	1B
=146	=146	=146	=146	=146
0r	0r	0r	1G]	1d
.	.	.	[1A	1c
=147	=147	=147	=147	=147
0r	0r	0r	1A]	1A
.	.	.	[1c	1r
=148	=148	=148	=148	=148
0r	0r	0r	0c_	0a
=149	=149	=149	=149	=149
0r	0r	0r	1c]	0g
.	.	.	[1G	.
=150	=150	=150	=150	=150
0r	0r	0r	1G]	1.b-
.	.	.	[1B-i	.
.	.	.	.	2a/
=151	=151	=151	=151	=151
0r	0r	0r	1B-]	1g
.	.	.	1A	1f
=152	=152	=152	=152	=152
0r	0r	0r	0G	1r
.	.	.	.	1g
=153	=153	=153	=153	=153
0r	0r	0r	1F	1a
.	.	.	1G	1b
=154	=154	=154	=154	=154
0r	0r	0r	1A	1.cc
.	.	.	[1c	.
.	.	.	.	2b\
=155	=155	=155	=155	=155
0r	0r	0r	2c\]	1g
.	.	.	2B\	.
.	.	.	1G	1dd
=156	=156	=156	=156	=156
0r	0r	0r	0d	2cc\
.	.	.	.	1b-i
.	.	.	.	2a/
=157	=157	=157	=157	=157
0r	0r	0r	1c	1a
.	.	.	[1B-i	2g/
.	.	.	.	2f/
=158	=158	=158	=158	=158
0r	0r	0r	1B-]	1g
.	.	.	[1A	[1a
=159	=159	=159	=159	=159
0r	0r	0r	0A_	1a]
.	.	.	.	1r
=160	=160	=160	=160	=160
0r	0r	0r	1A]	1r
.	.	.	1r	[1a
=161	=161	=161	=161	=161
0r	0r	0r	1r	2a/]
.	.	.	.	4g/
.	.	.	.	4f/
.	.	.	[1A	1e
=162	=162	=162	=162	=162
0r	0r	0r	1A]	0f
.	.	.	[1B-	.
=163	=163	=163	=163	=163
0r	0r	0r	2B-\]	1g
.	.	.	4A/	.
.	.	.	4G/	.
.	.	.	[1F	[1a
=164	=164	=164	=164	=164
0r	0r	0r	0F]	1a]
.	.	.	.	[1a
=165	=165	=165	=165	=165
0r	0r	0r	0A	2a/]
.	.	.	.	2g/
.	.	.	.	2f/
.	.	.	.	2e/
=166	=166	=166	=166	=166
0r	0r	0r	1G	0e
.	.	.	[1E	.
=167	=167	=167	=167	=167
0r	0r	0r	1E]	1.g
.	.	.	[1G	.
.	.	.	.	2f/
=168	=168	=168	=168	=168
0r	0r	0r	2G/]	1.d
.	.	.	2F/	.
.	.	.	[1D	.
.	.	.	.	[2f/
=169	=169	=169	=169	=169
0r	0r	0r	2D/]	2f/]
.	.	.	2E/	2e/
.	.	.	2F/	2d/
.	.	.	2G/	2B/
=170	=170	=170	=170	=170
0r	0r	0r	1E	1c#i
.	.	.	1r	[1d
=171	=171	=171	=171	=171
0r	0r	0r	1D	1d]
.	.	.	1C	1e
=172	=172	=172	=172	=172
0r	0r	0r	1D	1f
.	.	.	1E	1g
=173	=173	=173	=173	=173
0r	0r	0r	0F	1.a
.	.	.	.	4g/
.	.	.	.	4f/
=174	=174	=174	=174	=174
0r	0r	0r	2G/	1e
.	.	.	1A	.
.	.	.	.	1f
.	.	.	2F/	.
=175	=175	=175	=175	=175
0r	0r	0r	1E	1g
.	.	.	1F	1a
=176	=176	=176	=176	=176
0r	0r	0r	0G	1b-i
.	.	.	.	[1g
=177	=177	=177	=177	=177
0r	0r	0r	0A	1g]
.	.	.	.	1f#i
=178	=178	=178	=178	=178
0r	0r	0r	0G	1g
.	.	.	.	1r
=179	=179	=179	=179	=179
0r	0r	0r	[0c	1g
.	.	.	.	1g
=180	=180	=180	=180	=180
0r	0r	0r	0c]	1a
.	.	.	.	1cc
=181	=181	=181	=181	=181
0r	0r	0r	0F	1a
.	.	.	.	[1cc
=182	=182	=182	=182	=182
0r	0r	0r	0c	2cc\]
.	.	.	.	2b\
.	.	.	.	1g
=183	=183	=183	=183	=183
0r	0r	0r	0d	1f
.	.	.	.	1r
=184	=184	=184	=184	=184
0r	0r	0r	1c	0a
.	.	.	[1A	.
=185	=185	=185	=185	=185
0r	0r	0r	1A]	[0cc
.	.	.	[1F	.
=186	=186	=186	=186	=186
0r	0r	0r	1F]	0cc]
.	.	.	1c	.
=187	=187	=187	=187	=187
0r	0r	0r	1d	1b-i
.	.	.	1A	[1a
=188	=188	=188	=188	=188
0r	0r	0r	0B-i	1a]
.	.	.	.	1g
=189	=189	=189	=189	=189
0r	0r	0r	1A	1a
.	.	.	[1d	1f
=190	=190	=190	=190	=190
0r	0r	0r	1d]	0e
.	.	.	1c#i	.
=191	=191	=191	=191	=191
0r	0r	0r	1.d	0d
.	.	.	2c\	.
=192	=192	=192	=192	=192
0D	[0D	0r	2B-i\	0r
.	.	.	2A/	.
.	.	.	[1A	.
=193	=193	=193	=193	=193
0BB-i	0D]	0r	1A]	0d
.	.	.	1G	.
=194	=194	=194	=194	=194
0AA	0E	0r	[0A	0c
=195	=195	=195	=195	=195
1r	1D	0r	1A]	1d
1D	1A	.	1F	1f
=196	=196	=196	=196	=196
1E	1G	0r	1E	1g
1F	1F	.	1D	[1a
=197	=197	=197	=197	=197
0D	1A	0r	0F	1a]
.	1B	.	.	2g/
.	.	.	.	2f/
=198	=198	=198	=198	=198
1C	0c	0r	0G	0e
1E	.	.	.	.
=199	=199	=199	=199	=199
0D	0d	0r	0A	0f
=200	=200	=200	=200	=200
0r	1B	0r	1G	1g
.	1G	.	1E	[1g
=201	=201	=201	=201	=201
0r	0A	0r	0D	2g/]
.	.	.	.	2e/
.	.	.	.	1f#i
=202	=202	=202	=202	=202
[0GG	0G	0r	[0d	[0g
=203	=203	=203	=203	=203
0GG]	0B-i	0r	0d_	0g]
=204	=204	=204	=204	=204
0D	0A	0r	0d]	0f
=205	=205	=205	=205	=205
1r	1G	0r	1B	1e
[1D	1F	.	[1A	[1f
=206	=206	=206	=206	=206
1D]	1A	0r	2A/]	2f/]
.	.	.	2F/	2d/
1GG	1B-i	.	1G	[1d
=207	=207	=207	=207	=207
0AA	1.A	0r	0E	1d]
.	.	.	.	1c
.	2G/	.	.	.
=208	=208	=208	=208	=208
1D	1F	0r	0r	1d
1C	1E	.	.	1e
=209	=209	=209	=209	=209
0BB-i	0D	0r	1.F	[0f
.	.	.	2E/	.
=210	=210	=210	=210	=210
1AA	1A	0r	1C	1f]
[1C	[1G	.	[1c	[1e
=211	=211	=211	=211	=211
1C]	1G]	0r	1c]	1e]
1D	1F	.	1A	1d
=212	=212	=212	=212	=212
1AA	[0E	0r	1A	1c
1GG	.	.	1B	1B
=213	=213	=213	=213	=213
0AA	0E]	0r	0A	0c
=214	=214	=214	=214	=214
[0BB-i	[0Dl	0r	1G	[0dl
.	.	.	[1F	.
=215	=215	=215	=215	=215
1BB-]	0D_	0r	1F]	0d_
1GG	.	.	2E/	.
.	.	.	2F/	.
=216	=216	=216	=216	=216
[0GG	0D_	0r	1G	0d_
.	.	.	1D	.
=217	=217	=217	=217	=217
0GG_	0D_	0r	1G	0d_
.	.	.	1A	.
=218	=218	=218	=218	=218
0GG]	0D_	0r	0B-i	0d_
=219	=219	=219	=219	=219
0Dl	0D]	0r	0Al	0d]
==	==	==	==	==
*-	*-	*-	*-	*-
!!!RDF**kern: l=long note in original notation
!!!RDF**kern: i=editorial accidental
!!!RDF**kern: V=start of tuplet marker
!!!RDF**kern: Z=end of tuplet marker
!!!ENC:	Chris Gage 07-10-2012
!!!END:	2012/10/12/
!!!EED:	Jesse Rodin
!!!EEV:	2012/10/13/
!!!ONB:	Translated from MusicXML and edited on 2012/10/13/ by Craig Sapp
!!muse2ps: T^@{OPR}^u^@{ONM}{ .}@{OTL}^C^@{COM}^i2I150v85,85,85,85,130Q16
